icons/collection-box-2.svg

<!-- Generated by IcoMoon.io -->
<svg version="1.1" xmlns="http://www.w3.org/2000/svg" width="512" height="512" viewBox="0 0 512 512">
<title></title>
<g id="icomoon-ignore">
    <line stroke-width="1" x1="16" y1="0" x2="16" y2="512" stroke="#449FDB" opacity="0.3"></line>
    <line stroke-width="1" x1="32" y1="0" x2="32" y2="512" stroke="#449FDB" opacity="1"></line>
    <line stroke-width="1" x1="48" y1="0" x2="48" y2="512" stroke="#449FDB" opacity="0.3"></line>
    <line stroke-width="1" x1="64" y1="0" x2="64" y2="512" stroke="#449FDB" opacity="1"></line>
    <line stroke-width="1" x1="80" y1="0" x2="80" y2="512" stroke="#449FDB" opacity="0.3"></line>
    <line stroke-width="1" x1="96" y1="0" x2="96" y2="512" stroke="#449FDB" opacity="1"></line>
    <line stroke-width="1" x1="112" y1="0" x2="112" y2="512" stroke="#449FDB" opacity="0.3"></line>
    <line stroke-width="1" x1="128" y1="0" x2="128" y2="512" stroke="#449FDB" opacity="1"></line>
    <line stroke-width="1" x1="144" y1="0" x2="144" y2="512" stroke="#449FDB" opacity="0.3"></line>
    <line stroke-width="1" x1="160" y1="0" x2="160" y2="512" stroke="#449FDB" opacity="1"></line>
    <line stroke-width="1" x1="176" y1="0" x2="176" y2="512" stroke="#449FDB" opacity="0.3"></line>
    <line stroke-width="1" x1="192" y1="0" x2="192" y2="512" stroke="#449FDB" opacity="1"></line>
    <line stroke-width="1" x1="208" y1="0" x2="208" y2="512" stroke="#449FDB" opacity="0.3"></line>
    <line stroke-width="1" x1="224" y1="0" x2="224" y2="512" stroke="#449FDB" opacity="1"></line>
    <line stroke-width="1" x1="240" y1="0" x2="240" y2="512" stroke="#449FDB" opacity="0.3"></line>
    <line stroke-width="1" x1="256" y1="0" x2="256" y2="512" stroke="#449FDB" opacity="1"></line>
    <line stroke-width="1" x1="272" y1="0" x2="272" y2="512" stroke="#449FDB" opacity="0.3"></line>
    <line stroke-width="1" x1="288" y1="0" x2="288" y2="512" stroke="#449FDB" opacity="1"></line>
    <line stroke-width="1" x1="304" y1="0" x2="304" y2="512" stroke="#449FDB" opacity="0.3"></line>
    <line stroke-width="1" x1="320" y1="0" x2="320" y2="512" stroke="#449FDB" opacity="1"></line>
    <line stroke-width="1" x1="336" y1="0" x2="336" y2="512" stroke="#449FDB" opacity="0.3"></line>
    <line stroke-width="1" x1="352" y1="0" x2="352" y2="512" stroke="#449FDB" opacity="1"></line>
    <line stroke-width="1" x1="368" y1="0" x2="368" y2="512" stroke="#449FDB" opacity="0.3"></line>
    <line stroke-width="1" x1="384" y1="0" x2="384" y2="512" stroke="#449FDB" opacity="1"></line>
    <line stroke-width="1" x1="400" y1="0" x2="400" y2="512" stroke="#449FDB" opacity="0.3"></line>
    <line stroke-width="1" x1="416" y1="0" x2="416" y2="512" stroke="#449FDB" opacity="1"></line>
    <line stroke-width="1" x1="432" y1="0" x2="432" y2="512" stroke="#449FDB" opacity="0.3"></line>
    <line stroke-width="1" x1="448" y1="0" x2="448" y2="512" stroke="#449FDB" opacity="1"></line>
    <line stroke-width="1" x1="464" y1="0" x2="464" y2="512" stroke="#449FDB" opacity="0.3"></line>
    <line stroke-width="1" x1="480" y1="0" x2="480" y2="512" stroke="#449FDB" opacity="1"></line>
    <line stroke-width="1" x1="496" y1="0" x2="496" y2="512" stroke="#449FDB" opacity="0.3"></line>
    <line stroke-width="1" x1="0" y1="16" x2="512" y2="16" stroke="#449FDB" opacity="0.3"></line>
    <line stroke-width="1" x1="0" y1="32" x2="512" y2="32" stroke="#449FDB" opacity="1"></line>
    <line stroke-width="1" x1="0" y1="48" x2="512" y2="48" stroke="#449FDB" opacity="0.3"></line>
    <line stroke-width="1" x1="0" y1="64" x2="512" y2="64" stroke="#449FDB" opacity="1"></line>
    <line stroke-width="1" x1="0" y1="80" x2="512" y2="80" stroke="#449FDB" opacity="0.3"></line>
    <line stroke-width="1" x1="0" y1="96" x2="512" y2="96" stroke="#449FDB" opacity="1"></line>
    <line stroke-width="1" x1="0" y1="112" x2="512" y2="112" stroke="#449FDB" opacity="0.3"></line>
    <line stroke-width="1" x1="0" y1="128" x2="512" y2="128" stroke="#449FDB" opacity="1"></line>
    <line stroke-width="1" x1="0" y1="144" x2="512" y2="144" stroke="#449FDB" opacity="0.3"></line>
    <line stroke-width="1" x1="0" y1="160" x2="512" y2="160" stroke="#449FDB" opacity="1"></line>
    <line stroke-width="1" x1="0" y1="176" x2="512" y2="176" stroke="#449FDB" opacity="0.3"></line>
    <line stroke-width="1" x1="0" y1="192" x2="512" y2="192" stroke="#449FDB" opacity="1"></line>
    <line stroke-width="1" x1="0" y1="208" x2="512" y2="208" stroke="#449FDB" opacity="0.3"></line>
    <line stroke-width="1" x1="0" y1="224" x2="512" y2="224" stroke="#449FDB" opacity="1"></line>
    <line stroke-width="1" x1="0" y1="240" x2="512" y2="240" stroke="#449FDB" opacity="0.3"></line>
    <line stroke-width="1" x1="0" y1="256" x2="512" y2="256" stroke="#449FDB" opacity="1"></line>
    <line stroke-width="1" x1="0" y1="272" x2="512" y2="272" stroke="#449FDB" opacity="0.3"></line>
    <line stroke-width="1" x1="0" y1="288" x2="512" y2="288" stroke="#449FDB" opacity="1"></line>
    <line stroke-width="1" x1="0" y1="304" x2="512" y2="304" stroke="#449FDB" opacity="0.3"></line>
    <line stroke-width="1" x1="0" y1="320" x2="512" y2="320" stroke="#449FDB" opacity="1"></line>
    <line stroke-width="1" x1="0" y1="336" x2="512" y2="336" stroke="#449FDB" opacity="0.3"></line>
    <line stroke-width="1" x1="0" y1="352" x2="512" y2="352" stroke="#449FDB" opacity="1"></line>
    <line stroke-width="1" x1="0" y1="368" x2="512" y2="368" stroke="#449FDB" opacity="0.3"></line>
    <line stroke-width="1" x1="0" y1="384" x2="512" y2="384" stroke="#449FDB" opacity="1"></line>
    <line stroke-width="1" x1="0" y1="400" x2="512" y2="400" stroke="#449FDB" opacity="0.3"></line>
    <line stroke-width="1" x1="0" y1="416" x2="512" y2="416" stroke="#449FDB" opacity="1"></line>
    <line stroke-width="1" x1="0" y1="432" x2="512" y2="432" stroke="#449FDB" opacity="0.3"></line>
    <line stroke-width="1" x1="0" y1="448" x2="512" y2="448" stroke="#449FDB" opacity="1"></line>
    <line stroke-width="1" x1="0" y1="464" x2="512" y2="464" stroke="#449FDB" opacity="0.3"></line>
    <line stroke-width="1" x1="0" y1="480" x2="512" y2="480" stroke="#449FDB" opacity="1"></line>
    <line stroke-width="1" x1="0" y1="496" x2="512" y2="496" stroke="#449FDB" opacity="0.3"></line>
</g>
<path d="M450.1 121.4c-0.9-62.2-40.2-112.6-89.5-115.9v-0.2h-129.1c51.7 0 93.7 51.8 94.6 116.1v0 319.6h84.9v71h39v-71l0.1-319.6z"></path>
<path d="M299.2 117.1c-1.2-64.3-53.6-116.1-118.2-116.1-1.7 0-3.4 0.1-5 0.1-62.3 2.6-112.1 53.3-113.2 116h-0.1v389.9h48.7v-70.2h139.2v71h48.7v-87.5l-0.1-303.2zM246.9 188.8h-131.9v-44.4h131.9v44.4z"></path>
</svg>

<?xml version="1.0" encoding="utf-8"?>
<!-- Generator: Adobe Illustrator 24.0.3, SVG Export Plug-In . SVG Version: 6.00 Build 0)  -->
<svg version="1.1" id="Layer_1" xmlns="http://www.w3.org/2000/svg" xmlns:xlink="http://www.w3.org/1999/xlink" x="0px" y="0px"
	 viewBox="0 0 512 512" style="enable-background:new 0 0 512 512;" xml:space="preserve">
<title></title>
<path d="M450.1,121.4C449.2,59.2,409.9,8.8,360.6,5.5V5.3H231.5c51.7,0,93.7,51.8,94.6,116.1l0,0V441H411v71h39v-71
	C450,441,450.1,121.4,450.1,121.4z"/>
<path d="M299.2,117.1C298,52.8,245.6,1,181,1c-1.7,0-3.4,0.1-5,0.1c-62.3,2.6-112.1,53.3-113.2,116h-0.1V507h48.7v-70.2h139.2v71
	h48.7v-87.5L299.2,117.1L299.2,117.1z M246.9,188.8H115v-44.4h131.9V188.8L246.9,188.8z"/>
</svg>
